src/assets/icons/html.svg

<svg width="50" height="50" viewBox="0 0 50 50" fill="none" xmlns="http://www.w3.org/2000/svg">
<path d="M6.93359 44.9219L2.92969 0H46.9727L42.9688 44.9219L24.9023 50" fill="#E34F26"/>
<path d="M25 46.0938L39.5508 42.0898L42.9688 3.61328H25" fill="#EF652A"/>
<path d="M25 20.3125H17.6758L17.1875 14.6484H25V9.17969H11.1328L12.5977 25.8789H25V20.3125ZM24.9023 34.668L18.75 33.0078L18.3594 28.6133H12.8906L13.5742 37.3047L24.9023 40.4297V34.668Z" fill="#EBEBEB"/>
<path d="M24.9023 20.3125V25.8789H31.7383L31.0547 33.0078L24.9023 34.668V40.4297L36.2305 37.3047L37.793 20.3125H24.9023ZM24.9023 9.17969V14.6484H38.2812L38.7695 9.17969H24.9023Z" fill="white"/>
</svg>

<svg xmlns="http://www.w3.org/2000/svg" width="50" height="50" fill="none"><path fill="#E34F26" d="M6.934 44.922 2.93 0h44.043l-4.004 44.922L24.902 50"/><path fill="#EF652A" d="m25 46.094 14.55-4.004L42.97 3.613H25"/><path fill="#EBEBEB" d="M25 20.313h-7.324l-.488-5.665H25V9.18H11.133l1.465 16.699H25v-5.567Zm-.098 14.355-6.152-1.66-.39-4.395h-5.47l.684 8.692 11.328 3.125v-5.762Z"/><path fill="#fff" d="M24.902 20.313v5.566h6.836l-.683 7.129-6.153 1.66v5.762l11.328-3.125 1.563-16.992h-12.89Zm0-11.133v5.468h13.38l.488-5.468H24.901Z"/></svg>
